!!!OTL: 26. Skotshne
!!!Genre:	Skotshne
!!!Mode:	Freygish
!!!Listening/dance:	listening
!!!One_Mode:	no
!!!Orig_tonic: A
**kern
*I"P1
*clefG2
*k[b-e-a-]
*G:frey
*M2/4
*>A
!LO:TX:a:i:t=G-freygish
=1
(8qg/
4.dd)
8g
=2
(8qg/
4.dd)
8g
=3
16ee-LL
(16dd
16ee-)
(16ccJJ
16ddLL)
(16bn
16cc)
([16a-JJ
=4
16a-LL]
16ccJJ)
4bn
8g
=5
16ee-LL
(16dd
16ee-)
(16ccJJ
16ddLL)
(16bn
16cc)
([16a-JJ
=6
16a-LL]
16ccJJ)
4bn
8g
=7
16gLL
(16bn
16a-)
(16ccJJ
16bLL)
(16dd
16cc)
(16ee-JJ
=8
16ddLL)
16ff
(8qff/
16ee-)
16ddJJ
((8qdd/
16ccLL)
16bnJ
8a-J)
=9
(16ddLL
16cc)
(16cc
16bnJJ)
16.bntLL
32a-k
16g
16fJJ
*>A1
=10
4g
8.ggL
16gJk
*>A2
=11:|!
4.g
*>B
8c
=12!|:
(8qg/
16.fLL)
32enk
16f
16gJJ
(8qbn/
16.a-LL)
32gk
16a-
16fJJ
=13
8g
8r
8.bn^uL
16gJk
=14
(8qdd/
16.ccLL)
32bnk
16cc
16ddJJ
(8qff/
16.ee-LL)
32ddk
16ee-
16ccJJ
=15
8dd
8r
4gg^u
=16
16ffLL
16gg
(16aa-'
16gg'JJ
16ff'LL
16ee-'
16dd'
16cc'JJ)
=17
(16ccLL
16gg)
(16gg
16ccJJ)
4cc
=18
(16bnLL
16cc)
(16dd'
16ee-'JJ
16dd'LL
16cc'
16b'
16a-'JJ)
=19
(16a-LL
16cc)
(16cc
16fJJ)
4f
=20
(8qg/
16.fLL)
32enk
16f
16gJJ
(8qbn/
16.a-LL)
32gk
16a-
16fJJ
=21
8g
8r
8.bntL
16gJk
=22
(8qdd/
16.ccLL)
32bnk
16cc
16ddJJ
(8qff/
16.ee-LL)
32ddk
16ee-
16ccJJ
=23
8dd
8r
4gg^
=24
16ffLL
(16gg
16aa-)
(16ffJJ
16ggLL)
(16ee-
16ff)
(16ddJJ
=25
16ee-LL)
(16cc
16dd)
(16bnJJ
16ccLL)
(16a-
16b)
16gJJ
=26
16a-~LL
16g~
16f~
16en~JJ
16f~LL
16dd~
16cc~
16bn~JJ
=27
(16a-LL
16gJJ)
[4g
8g]
*>bM
*c:
!LO:TX:a:i:t=C-minor
=28:|!|:
*>C
(4.ccT
8g)
=29
(4.ccT
8g)
=30
(8.ccTL
16gJk)
(8ddtL
8gJ)
=31
(16ddLL
16ff)
(8qff/
16ee-~)
16dd~JJ
4cc
=32
(8qg/
8ccL)
8cc'J
(8qg/
8ddL)
8dd'J
=33
16ddLL
16ff
(8qff/
16ee-)
16ddJJ
4cc
=34
(8qcc/
4ffu)
(8qcc/
4ggu)
=35
(16ggLL
16bb-X)
(8qbb-/
16aa-)
16ggJJ
4ff
=36
(8qcc/
8ffL)
8ff'J
(8qcc/
8ggL)
8gg'J
=37
(16ggLL
16bb-X
16aa-
16ggJJ
4ff)
=38
(16ffLL
16ccc)
(16ccc
16ffJJ)
(16ffLL
16aa-X)
(16aa-
16ddJJ)
=39
(16ddLL
16ff)
(16ff
16bnJJ)
(16bLL
16dd)
(16dd
16gJJ)
=40
(16gLL
16ee-
16dd
16ccJJ
(8qcc/
16bnLL)
16g
16b
16ddJJ)
*>C1
=41
4.cc
56cLLL
56d
56e-
56f
56g
56a-X
56bnJJJ
*>C2
=42:|!
4.cc
8c
*>eM
==
*-
